symbols/web/trending_down/materialsymbolsrounded/trending_down_wght100gradN25_24px.svg

<svg xmlns="http://www.w3.org/2000/svg" height="24" width="24"><path d="M16.85 17.275q-.15 0-.237-.1-.088-.1-.088-.225t.088-.225q.087-.1.237-.1h3.25l-6.825-6.7-3.475 3.45q-.125.125-.25.175-.125.05-.25.05-.15 0-.275-.05-.125-.05-.225-.175L3.1 7.65Q3 7.575 3 7.438q0-.138.125-.238.1-.125.225-.125t.225.125L9.3 12.925l3.45-3.45q.125-.125.25-.188.125-.062.275-.062.125 0 .25.062.125.063.25.163l6.725 6.725v-3.2q0-.1.087-.2.088-.1.213-.1.15 0 .238.1.087.1.087.2v3.575q0 .325-.2.525t-.5.2Z"/></svg>

<svg xmlns="http://www.w3.org/2000/svg" height="24" width="24"><path d="M16.85 17.275Q16.7 17.275 16.613 17.175Q16.525 17.075 16.525 16.95Q16.525 16.825 16.613 16.725Q16.7 16.625 16.85 16.625H20.1L13.275 9.925L9.8 13.375Q9.675 13.5 9.55 13.55Q9.425 13.6 9.3 13.6Q9.15 13.6 9.025 13.55Q8.9 13.5 8.8 13.375L3.1 7.65Q3 7.575 3 7.438Q3 7.3 3.125 7.2Q3.225 7.075 3.35 7.075Q3.475 7.075 3.575 7.2L9.3 12.925L12.75 9.475Q12.875 9.35 13 9.287Q13.125 9.225 13.275 9.225Q13.4 9.225 13.525 9.287Q13.65 9.35 13.775 9.45L20.5 16.175V12.975Q20.5 12.875 20.587 12.775Q20.675 12.675 20.8 12.675Q20.95 12.675 21.038 12.775Q21.125 12.875 21.125 12.975V16.55Q21.125 16.875 20.925 17.075Q20.725 17.275 20.425 17.275Z"/></svg>
